X:67
T:Gray Eagle
S:American Veteran Fifer, #67
C:Donated by J.L.Blatchley, Fifer Co.F.2nd N.Y Heavy Artillery
M:2/4
L:1/16
Q:1/8=180
K:D 
%%MIDI program 72
%%MIDI transpose 8
%%MIDI ratio 3 1
fe | dB2d ABAF | Adfd e2fe |dB2d ABAF | Adfe d2fe |
dB2d ABAF | Adfd e2fg | afge fded | Adfe d2 :|
|: fg | affg a2fg | affb a2>f2 | gfga bgaf | gefd e2fg |
affg a2fg | affb a2>f2 | gfga bgaf | gefd d2 :|


